packages/icons/svg/Instruction_Service_PurchaseHelp_Car--StandInLine_48px.svg

<svg xmlns="http://www.w3.org/2000/svg" viewBox="0 0 48 48"><path d="M32.19 21.73a9.68 9.68 0 002.58-1l5-2.89a2.48 2.48 0 011.24-.33H44v-3h-2.94a5.57 5.57 0 00-2.73.72l-5 2.89a6.32 6.32 0 01-1.76.69l-5 1.15A2 2 0 0025 21.9v5.17a2 2 0 001.71 2l3.92.57a5 5 0 009.61.38H44V27h-3.76a5 5 0 00-9.37-.38L28 26.2v-3.51zm3.3 4.77a2 2 0 11-2 2 2 2 0 012-2zM12.5 33.5a5 5 0 004.74-3.5H21a2 2 0 002-2v-5.6a2 2 0 00-1.57-1.95l-8.22-1.83-3.08-2.73a5.45 5.45 0 00-3.65-1.39H4v3h2.48a2.49 2.49 0 011.66.63l3.65 3.25L20 23.2V27h-2.76a5 5 0 00-9.48 0H4v3h3.76a5 5 0 004.74 3.5zm0-7a2 2 0 11-2 2 2 2 0 012-2zM42.5 35h-37a1.5 1.5 0 000 3h37a1.5 1.5 0 000-3z"/></svg>

<svg xmlns="http://www.w3.org/2000/svg" viewBox="0 0 48 48"><defs></defs><g id="Icon"><path  d="M32.19,21.73a9.68,9.68,0,0,0,2.58-1l5-2.89a2.48,2.48,0,0,1,1.24-.33H44v-3H41.06a5.57,5.57,0,0,0-2.73.72l-5,2.89a6.32,6.32,0,0,1-1.76.69l-5,1.15A2,2,0,0,0,25,21.9v5.17a2,2,0,0,0,1.71,2l3.92.57a5,5,0,0,0,9.61.38H44V27H40.24a5,5,0,0,0-9.37-.38L28,26.2V22.69Zm3.3,4.77a2,2,0,1,1-2,2A2,2,0,0,1,35.49,26.5Z"/><path  d="M12.5,33.5A5,5,0,0,0,17.24,30H21a2,2,0,0,0,2-2V22.4a2,2,0,0,0-1.57-1.95l-8.22-1.83-3.08-2.73A5.45,5.45,0,0,0,6.48,14.5H4v3H6.48a2.49,2.49,0,0,1,1.66.63l3.65,3.25L20,23.2V27H17.24a5,5,0,0,0-9.48,0H4v3H7.76A5,5,0,0,0,12.5,33.5Zm0-7a2,2,0,1,1-2,2A2,2,0,0,1,12.5,26.5Z"/><path  d="M42.5,35H5.5a1.5,1.5,0,0,0,0,3h37a1.5,1.5,0,0,0,0-3Z"/></g></svg>
